X: 10864
T: Drive Hawkie Through The Water
R: reel
M: 4/4
K: Cmajor
|:B|cGce d2de|cdec dBGB|cGce d2df|eaa^g aAA:|
|:a|geec defd|geec d2da|geec defd|eaa^g aAA:|

